X:3
T:Ding Dong Merrily on High 
L:1/16
M:2/4
K:G
R: Christmas 
|: "G"D2D2 AGFE | D6 D2 | "C"E2G2 "D"G2F2 | "G"G4 G4 :| 
|: "G"d3c Bcdc | "C"c3B ABcA | "Em" B3A GABG | "D"A3G FGAG | 
"C" G3F EFGF | "D" F3E D2D2 | "C"E2G2 "D"G2F2 | "G"G4 G4 :| 

